X:1
T: The Corkonian
C:
R:Reel
Q: 232
K:D
M:4/4
L:1/8
|:((3ABc)|d2 dA BA FG|Ad cd BA FG|Ac de fd ed|Be e2 Be e2|
d2 dA BA FG|Ad cd BA FG|Ac de fd ec|dB AF D2:|
|:fg|a4 f4|d2 dA BA FG|Ac de fd ed|Be e2 Be e2|
a2 ag f2 fe|d2 dA BA FG|Ac de fd ec|dB AF D2:|
